X: 28605
T: Music At The Gate
R: reel
M: 4/4
K: Gmajor
BA|:GABd ~g3f|edef gBBA|GABd ~g3d|egdB BAAB|
GABd ~g3f|edef ~g3a|(3bag af gfed|1 egfa g4:|2 egfa g3a||
|:bg ~g2 agef|~g3e dega|bg ~g2 aged|eaag a2ga|
bg ~g2 agef|~g3e dega|(3bag af gfed|1 egfa g3a:|2 egfa g4||

